; generated by PrusaSlicer 2.4.0+win64 on 2022-03-09 at 16:00:20 UTC


;
;

;
;
; 

; external perimeters extrusion width = 0.45mm
; perimeters extrusion width = 0.45mm
; infill extrusion width = 0.45mm
; solid infill extrusion width = 0.45mm
; top infill extrusion width = 0.40mm
; first layer extrusion width = 0.42mm

M73 P0 R55
M201 X2500 Y2500 Z400 E5000 ; sets maximum accelerations, mm/sec^2
M203 X180 Y180 Z12 E80 ; sets maximum feedrates, mm/sec
M204 P1250 R1250 T2500 ; sets acceleration (P, T) and retract acceleration (R), mm/sec^2
M205 X8.00 Y8.00 Z2.00 E10.00 ; sets the jerk limits, mm/sec
M205 S0 T0 ; sets the minimum extruding and travel feed rate, mm/sec
M107
;TYPE:Custom
G90 ; use absolute coordinates
M83 ; extruder relative mode
M104 S170 ; set extruder temp for bed leveling
M140 S60 ; set bed temp
M109 R170 ; wait for bed leveling temp
M190 S60 ; wait for bed temp
M204 T1250 ; set travel acceleration
G28 ; home all without mesh bed level
G29 ; mesh bed leveling 
M204 T2500 ; restore travel acceleration
M104 S215 ; set extruder temp
G92 E0
G1 Y-2 X179 F2400
G1 Z3 F720
M109 S215 ; wait for extruder temp

; intro line
G1 X170 F1000
G1 Z0.2 F720
G1 X110 E8 F900
G1 X40 E10 F700
G92 E0

M221 S95 ; set flow
G21 ; set units to millimeters
G90 ; use absolute coordinates
M83 ; use relative distances for extrusion
M900 K0.2 ; Filament gcode LA 1.5
; ; Filament gcode LA 1.0
M107
;LAYER_CHANGE
;Z:0.2
;HEIGHT:0.2
;BEFORE_LAYER_CHANGE
G92 E0.0
;0.2


G1 E-3.2 F4200
G1 Z.2 F720
;AFTER_LAYER_CHANGE
;0.2
G1 Z.4
G1 X60.791 Y40.039 F9000
G1 Z.2 F720
G1 E3.2 F2400
M204 P800
;TYPE:Skirt/Brim
;WIDTH:0.42
G1 F1200
G1 X62.595 Y39.247 E.06177
G1 X117.236 Y39.999 E1.71339
G1 X118.537 Y40.409 E.04278
G1 X119.552 Y42.011 E.05945
G1 X127.591 Y93.712 E1.64054
G1 X127.811 Y96.111 E.07553
G1 X127.879 Y98.519 E.07553
G1 X127.803 Y100.775 E.07079
G1 X127.574 Y103.173 E.07553
G1 X127.193 Y105.552 E.07553
G1 X126.692 Y107.77 E.07128
G1 X125.935 Y110.356 E.08451
G1 X125.157 Y112.476 E.07079
G1 X124.19 Y114.682 E.07553
G1 X123.084 Y116.822 E.07553
G1 X121.962 Y118.695 E.06845
G1 X120.387 Y120.992 E.08733
G1 X118.986 Y122.763 E.07079
G1 X117.377 Y124.556 E.07553
G1 X115.658 Y126.243 E.07553
G1 X113.722 Y127.909 E.08009
G1 X97.434 Y140.27 E.64109
G1 X95.997 Y140.753 E.04754
G1 X84.997 Y140.753 E.3449
G1 X83.619 Y140.313 E.04536
G1 X66.995 Y128.475 E.6399
G1 X64.998 Y126.838 E.08097
G1 X63.224 Y125.176 E.07619
G1 X61.662 Y123.519 E.07141
G1 X60.109 Y121.65 E.07619
G1 X58.678 Y119.686 E.07619
G1 X57.376 Y117.634 E.07619
G1 X56.208 Y115.503 E.07619
G1 X55.18 Y113.302 E.07619
G1 X54.294 Y111.039 E.07619
G1 X53.556 Y108.724 E.07619
G1 X52.968 Y106.366 E.07619
G1 X52.509 Y103.824 E.08097
G1 X52.23 Y101.273 E.08047
G1 X52.12 Y98.983 E.07191
G1 X52.152 Y96.705 E.07141
G1 X52.354 Y94.131 E.08097
G1 X60.211 Y41.274 E1.6755
G1 X60.765 Y40.093 E.0409
M204 P1000
; printing object Homework 1.a v1.stl id:0 copy 0
G1 E-2.24 F4200
;WIPE_START
G1 F7200
G1 X62.259 Y39.402 E-.912
;WIPE_END
G1 E-.048 F4200
G1 Z.4 F720
G1 X83.598 Y78.319 F9000
G1 Z.2 F720
G1 E3.2 F2400
M204 P800
;TYPE:Perimeter
G1 F1200
G1 X96.462 Y78.319 E.40334
G1 X115.252 Y120.128 E1.43721
G1 X113.345 Y122.135 E.08679
M73 P1 R55
G1 X111.675 Y123.667 E.07106
G1 X109.905 Y125.083 E.07106
G1 X108.043 Y126.375 E.07106
G1 X106.097 Y127.537 E.07106
G1 X104.077 Y128.564 E.07106
G1 X101.992 Y129.452 E.07106
G1 X99.851 Y130.196 E.07106
G1 X97.664 Y130.792 E.07106
G1 X95.442 Y131.238 E.07106
G1 X93.195 Y131.533 E.07106
G1 X90.933 Y131.673 E.07106
G1 X88.666 Y131.66 E.07106
G1 X86.406 Y131.492 E.07106
G1 X84.163 Y131.172 E.07106
G1 X81.946 Y130.699 E.07106
G1 X79.767 Y130.077 E.07106
G1 X77.635 Y129.308 E.07106
G1 X75.56 Y128.395 E.07106
G1 X73.552 Y127.344 E.07106
G1 X71.62 Y126.159 E.07106
G1 X69.774 Y124.845 E.07106
G1 X68.02 Y123.408 E.07106
G1 X66.369 Y121.856 E.07106
G1 X64.488 Y119.83 E.08668
G1 X83.441 Y78.319 E1.43078
G1 X83.538 Y78.319 E.00306
M204 P1000
G1 X83.683 Y78.696 F9000
M204 P800
;TYPE:External perimeter
G1 F1200
G1 X96.218 Y78.696 E.39304
G1 X114.804 Y120.052 E1.42162
G1 X113.081 Y121.865 E.07845
G1 X111.43 Y123.381 E.07026
G1 X109.68 Y124.78 E.07026
G1 X107.839 Y126.058 E.07026
G1 X105.915 Y127.207 E.07026
G1 X103.918 Y128.223 E.07026
G1 X101.856 Y129.1 E.07026
G1 X99.739 Y129.835 E.07026
G1 X97.577 Y130.425 E.07026
G1 X95.381 Y130.866 E.07026
G1 X93.159 Y131.157 E.07026
G1 X90.922 Y131.296 E.07026
M73 P1 R54
G1 X88.682 Y131.283 E.07026
G1 X86.447 Y131.117 E.07026
G1 X84.229 Y130.8 E.07026
G1 X82.037 Y130.333 E.07026
G1 X79.882 Y129.718 E.07026
G1 X77.775 Y128.957 E.07026
G1 X75.723 Y128.055 E.07026
G1 X73.738 Y127.016 E.07026
G1 X71.828 Y125.844 E.07026
G1 X70.003 Y124.545 E.07026
G1 X68.269 Y123.125 E.07026
G1 X66.637 Y121.59 E.07026
G1 X64.936 Y119.757 E.0784
G1 X83.658 Y78.75 E1.41342
M204 P1000
G1 X83.733 Y78.299 F9000
G1 E-2.24 F4200
;WIPE_START
G1 F7200
G1 X85.304 Y78.743 E-.912
;WIPE_END
G1 E-.048 F4200
G1 Z.4 F720
G1 X82.372 Y76.231 F9000
G1 Z.2 F720
G1 E3.2 F2400
M204 P800
;TYPE:Perimeter
G1 F1200
G1 X66.401 Y76.23 E.50076
G1 X66.007 Y75.236 E.03353
G1 X68.014 Y73.35 E.08636
G1 X69.751 Y71.925 E.07043
G1 X71.58 Y70.62 E.07043
G1 X73.492 Y69.442 E.07043
G1 X75.48 Y68.396 E.07043
G1 X77.533 Y67.486 E.07043
G1 X79.643 Y66.716 E.07043
G1 X81.801 Y66.09 E.07043
G1 X83.995 Y65.611 E.07043
G1 X86.654 Y65.216 E.08428
G1 X87.217 Y65.964 E.02936
G1 X82.53 Y76.231 E.35385
G1 X82.432 Y76.231 E.00306
M204 P1000
G1 X82.288 Y75.853 F9000
M204 P800
;TYPE:External perimeter
G1 F1200
G1 X66.657 Y75.853 E.49007
G1 X66.452 Y75.335 E.01747
G1 X68.263 Y73.633 E.07793
G1 X69.98 Y72.224 E.06963
G1 X71.788 Y70.935 E.06963
G1 X73.679 Y69.77 E.06963
G1 X75.644 Y68.735 E.06963
G1 X77.674 Y67.835 E.06963
G1 X79.761 Y67.074 E.06963
G1 X81.894 Y66.456 E.06963
G1 X84.063 Y65.982 E.06963
G1 X86.488 Y65.622 E.07685
G1 X86.781 Y66.012 E.01529
G1 X82.312 Y75.799 E.33734
M204 P1000
G1 X82.236 Y76.25 F9000
G1 E-2.24 F4200
;WIPE_START
G1 F7200
G1 X80.667 Y75.805 E-.912
;WIPE_END
G1 E-.048 F4200
G1 Z.4 F720
G1 X84.581 Y76.231 F9000
G1 Z.2 F720
G1 E3.2 F2400
M204 P800
;TYPE:Perimeter
G1 F1200
G1 X84.394 Y76.231 E.00585
G1 X89.492 Y65.065 E.38486
G1 X90.507 Y65.068 E.03183
G1 X95.524 Y76.231 E.38373
G1 X84.641 Y76.231 E.34123
M204 P1000
G1 X84.981 Y75.853 F9000
M204 P800
;TYPE:External perimeter
G1 F1200
G1 X89.734 Y65.443 E.35884
G1 X90.263 Y65.444 E.01658
G1 X94.941 Y75.854 E.35783
G1 X85.041 Y75.853 E.31041
M204 P1000
G1 X84.582 Y75.886 F9000
G1 E-2.24 F4200
;WIPE_START
G1 F7200
G1 X85.717 Y74.353 E-.912
;WIPE_END
G1 E-.048 F4200
G1 Z.4 F720
G1 X93.515 Y65.242 F9000
G1 Z.2 F720
G1 E3.2 F2400
M204 P800
;TYPE:Perimeter
G1 F1200
G1 X95.999 Y65.611 E.07875
G1 X98.194 Y66.09 E.07043
G1 X100.351 Y66.716 E.07043
G1 X102.461 Y67.486 E.07043
G1 X104.515 Y68.396 E.07043
G1 X106.503 Y69.443 E.07043
G1 X108.415 Y70.621 E.07043
G1 X110.244 Y71.925 E.07043
G1 X111.981 Y73.35 E.07043
G1 X113.988 Y75.237 E.08637
G1 X113.594 Y76.231 E.03353
G1 X97.443 Y76.231 E.5064
G1 X92.778 Y65.963 E.3536
G1 X93.341 Y65.216 E.02933
G1 X93.455 Y65.233 E.00363
M204 P1000
G1 X93.507 Y65.622 F9000
M204 P800
;TYPE:External perimeter
G1 F1200
G1 X95.931 Y65.982 E.07684
G1 X98.101 Y66.456 E.06963
G1 X100.234 Y67.074 E.06963
G1 X102.32 Y67.836 E.06963
G1 X104.351 Y68.735 E.06963
G1 X106.316 Y69.77 E.06963
G1 X108.206 Y70.935 E.06963
G1 X110.015 Y72.225 E.06963
G1 X111.732 Y73.633 E.06963
G1 X113.543 Y75.336 E.07793
G1 X113.337 Y75.854 E.01747
G1 X97.685 Y75.854 E.49076
G1 X93.214 Y66.011 E.33896
G1 X93.471 Y65.67 E.0134
M204 P1000
G1 X93.495 Y65.222 F9000
G1 E-2.24 F4200
;WIPE_START
G1 F7200
G1 X95.103 Y65.877 E-.912
;WIPE_END
G1 E-.048 F4200
G1 Z.4 F720
G1 X98.468 Y78.488 F9000
G1 Z.2 F720
G1 E3.2 F2400
M204 P800
;TYPE:Perimeter
G1 F1200
G1 X98.391 Y78.319 E.00582
G1 X114.935 Y78.319 E.5187
G1 X114.934 Y111.542 E1.04169
G1 X113.616 Y111.828 E.04229
G1 X98.493 Y78.542 E1.14631
M204 P1000
G1 X98.977 Y78.696 F9000
M204 P800
;TYPE:External perimeter
M73 P2 R54
G1 F1200
G1 X114.557 Y78.696 E.48852
G1 X114.557 Y111.238 E1.02033
G1 X113.833 Y111.395 E.02322
G1 X99.002 Y78.751 E1.12423
M204 P1000
G1 X98.918 Y78.3 F9000
G1 E-2.24 F4200
;WIPE_START
G1 F7200
G1 X100.647 Y78.745 E-.912
;WIPE_END
G1 E-.048 F4200
G1 Z.4 F720
G1 X117.196 Y80.099 F9000
G1 Z.2 F720
G1 E3.2 F2400
M204 P800
;TYPE:Perimeter
G1 F1200
G1 X117.762 Y79.941 E.01841
G1 X119.132 Y82.228 E.08359
G1 X120.149 Y84.217 E.07003
G1 X121.03 Y86.27 E.07003
G1 X121.771 Y88.376 E.07003
G1 X122.37 Y90.528 E.07003
G1 X122.823 Y92.715 E.07003
G1 X123.129 Y94.928 E.07003
G1 X123.285 Y97.155 E.07003
G1 X123.292 Y99.389 E.07003
G1 X123.149 Y101.618 E.07003
G1 X122.858 Y103.832 E.07003
G1 X122.418 Y106.022 E.07003
G1 X121.833 Y108.177 E.07003
G1 X121.105 Y110.289 E.07003
G1 X120.236 Y112.347 E.07003
G1 X119.232 Y114.342 E.07003
G1 X117.877 Y116.637 E.08359
G1 X116.647 Y116.303 E.03996
G1 X116.534 Y80.283 E1.1294
G1 X117.139 Y80.115 E.01967
M204 P1000
G1 X116.912 Y80.569 F9000
M204 P800
;TYPE:External perimeter
G1 F1200
G1 X117.586 Y80.382 E.02194
G1 X118.802 Y82.411 E.07418
G1 X119.807 Y84.378 E.06924
G1 X120.678 Y86.407 E.06924
G1 X121.411 Y88.49 E.06924
G1 X122.003 Y90.617 E.06924
G1 X122.451 Y92.779 E.06924
G1 X122.753 Y94.967 E.06924
G1 X122.908 Y97.169 E.06924
G1 X122.915 Y99.377 E.06924
G1 X122.774 Y101.581 E.06924
G1 X122.485 Y103.77 E.06924
G1 X122.051 Y105.935 E.06924
G1 X121.472 Y108.066 E.06924
G1 X120.752 Y110.154 E.06924
G1 X119.894 Y112.188 E.06924
G1 X118.901 Y114.161 E.06923
G1 X117.698 Y116.198 E.07418
G1 X117.023 Y116.015 E.02194
G1 X116.912 Y80.629 E1.1095
M204 P1000
G1 X116.837 Y80.176 F9000
G1 E-2.24 F4200
;WIPE_START
G1 F7200
G1 X117.586 Y80.382 E-.39786
G1 X118.063 Y81.178 E-.51414
;WIPE_END
G1 E-.048 F4200
G1 Z.4 F720
G1 X113.527 Y72.852 F9000
G1 Z.2 F720
G1 E3.2 F2400
M204 P800
;TYPE:Perimeter
G1 F1200
G1 X112.054 Y71.565 E.06134
G1 X110.418 Y70.299 E.06486
G1 X108.145 Y68.747 E.0863
G1 X113.615 Y56.644 E.41643
G1 X114.935 Y56.928 E.04234
G1 X114.935 Y72.856 E.4994
G1 X114.012 Y73.275 E.03179
G1 X113.573 Y72.892 E.01828
M204 P1000
G1 X114.077 Y72.832 F9000
M204 P800
;TYPE:External perimeter
G1 F1200
G1 X112.294 Y71.274 E.07423
G1 X110.64 Y69.994 E.06557
G1 X108.619 Y68.614 E.07674
G1 X113.833 Y57.077 E.39696
G1 X114.558 Y57.233 E.02324
G1 X114.558 Y72.613 E.48224
G1 X114.131 Y72.807 E.01468
M204 P1000
G1 X113.889 Y73.185 F9000
G1 E-2.24 F4200
;WIPE_START
G1 F7200
G1 X112.868 Y71.752 E-.912
;WIPE_END
G1 E-.048 F4200
G1 Z.4 F720
G1 X71.54 Y68.972 F9000
G1 Z.2 F720
G1 E3.2 F2400
M204 P800
;TYPE:Perimeter
G1 F1200
G1 X69.719 Y70.196 E.0688
G1 X67.957 Y71.551 E.0697
G1 X65.885 Y73.368 E.0864
G1 X64.96 Y72.949 E.03182
G1 X64.961 Y55.829 E.53677
G1 X66.282 Y55.546 E.04238
G1 X72.136 Y68.571 E.44774
G1 X71.59 Y68.938 E.02063
M204 P1000
G1 X71.662 Y68.436 F9000
M204 P800
;TYPE:External perimeter
G1 F1200
G1 X69.499 Y69.889 E.08172
G1 X67.717 Y71.26 E.07046
G1 X65.819 Y72.924 E.07916
G1 X65.337 Y72.706 E.01658
G1 X65.338 Y56.134 E.51959
G1 X66.063 Y55.978 E.02327
G1 X71.637 Y68.381 E.42633
M204 P1000
G1 X71.872 Y68.776 F9000
G1 E-2.24 F4200
;WIPE_START
G1 F7200
G1 X70.292 Y69.329 E-.912
;WIPE_END
G1 E-.048 F4200
G1 Z.4 F720
G1 X64.983 Y78.319 F9000
G1 Z.2 F720
G1 E3.2 F2400
M204 P800
;TYPE:Perimeter
G1 F1200
G1 X81.576 Y78.319 E.52027
G1 X66.277 Y111.829 E1.15503
G1 X64.96 Y111.543 E.04225
G1 X64.96 Y78.356 E1.04056
M204 P1000
G1 X65.337 Y78.696 F9000
M204 P800
;TYPE:External perimeter
G1 F1200
G1 X80.99 Y78.696 E.49077
G1 X66.06 Y111.396 E1.1271
G1 X65.337 Y111.239 E.0232
G1 X65.337 Y78.756 E1.01849
M204 P1000
G1 X65.334 Y78.296 F9000
G1 E-2.24 F4200
;WIPE_START
G1 F7200
G1 X66.983 Y78.749 E-.912
;WIPE_END
G1 E-.048 F4200
G1 Z.4 F720
G1 X63.349 Y80.564 F9000
G1 Z.2 F720
G1 E3.2 F2400
M204 P800
;TYPE:Perimeter
G1 F1200
G1 X63.349 Y116.301 E1.12051
G1 X62.118 Y116.637 E.04002
M73 P3 R54
G1 X60.768 Y114.352 E.08321
G1 X59.768 Y112.369 E.06964
G1 X58.903 Y110.323 E.06965
G1 X58.176 Y108.224 E.06965
G1 X57.59 Y106.081 E.06965
G1 X57.149 Y103.905 E.06964
G1 X56.853 Y101.703 E.06965
G1 X56.705 Y99.487 E.06965
G1 X56.705 Y97.266 E.06965
G1 X56.853 Y95.049 E.06965
G1 X57.149 Y92.848 E.06965
G1 X57.59 Y90.671 E.06964
G1 X58.176 Y88.528 E.06965
G1 X58.903 Y86.429 E.06965
G1 X59.768 Y84.384 E.06965
G1 X60.768 Y82.4 E.06965
G1 X62.118 Y80.115 E.08321
G1 X63.349 Y80.451 E.04002
G1 X63.349 Y80.504 E.00164
M204 P1000
G1 X62.972 Y80.739 F9000
M204 P800
;TYPE:External perimeter
G1 F1200
G1 X62.972 Y116.013 E1.10598
G1 X62.296 Y116.198 E.02197
M73 P3 R53
G1 X61.099 Y114.171 E.07379
G1 X60.111 Y112.21 E.06886
G1 X59.255 Y110.188 E.06886
G1 X58.536 Y108.113 E.06886
G1 X57.957 Y105.994 E.06886
G1 X57.521 Y103.842 E.06886
G1 X57.229 Y101.665 E.06886
G1 X57.082 Y99.474 E.06886
G1 X57.082 Y97.278 E.06886
G1 X57.229 Y95.087 E.06886
G1 X57.521 Y92.91 E.06886
G1 X57.957 Y90.758 E.06886
G1 X58.536 Y88.64 E.06886
G1 X59.255 Y86.565 E.06886
G1 X60.111 Y84.542 E.06886
G1 X61.099 Y82.581 E.06886
G1 X62.296 Y80.555 E.07379
G1 X62.914 Y80.724 E.02009
M204 P1000
G1 X63.359 Y80.637 F9000
G1 E-2.24 F4200
;WIPE_START
G1 F7200
G1 X62.917 Y82.369 E-.912
;WIPE_END
G1 E-.048 F4200
G1 Z.4 F720
G1 X86.211 Y132.922 F9000
G1 Z.2 F720
G1 E3.2 F2400
M204 P800
;TYPE:Perimeter
G1 F1200
G1 X89.018 Y133.081 E.08816
G1 X90.976 Y133.081 E.06138
G1 X92.975 Y132.968 E.06278
G1 X94.784 Y132.968 E.05673
G1 X94.784 Y137.163 E.13154
G1 X86.21 Y137.163 E.26884
G1 X86.21 Y132.981 E.13113
M204 P1000
G1 X86.587 Y133.321 F9000
M204 P800
;TYPE:External perimeter
G1 F1200
G1 X89.008 Y133.458 E.07601
G1 X90.987 Y133.458 E.06205
G1 X92.986 Y133.345 E.06278
G1 X94.407 Y133.345 E.04457
G1 X94.407 Y136.786 E.1079
G1 X86.587 Y136.786 E.24519
G1 X86.587 Y133.381 E.10676
M204 P1000
G1 X86.451 Y132.945 F9000
G1 X85.784 Y132.921
M204 P800
;TYPE:Perimeter
G1 F1200
G1 X85.784 Y132.867 E.0017
G1 X82.914 Y132.364 E.09135
G1 X80.75 Y131.84 E.06983
G1 X78.623 Y131.178 E.06983
G1 X76.544 Y130.382 E.06983
G1 X74.519 Y129.453 E.06983
G1 X72.559 Y128.397 E.06983
G1 X70.67 Y127.217 E.06983
G1 X68.86 Y125.919 E.06983
G1 X67.138 Y124.507 E.06983
G1 X65.51 Y122.988 E.06983
G1 X63.982 Y121.367 E.06983
G1 X62.562 Y119.652 E.06983
G1 X61.254 Y117.849 E.06983
G1 X60.065 Y115.966 E.06983
G1 X58.998 Y114.011 E.06983
G1 X58.06 Y111.991 E.06983
G1 X57.253 Y109.915 E.06983
G1 X56.58 Y107.792 E.06983
G1 X56.045 Y105.63 E.06983
G1 X55.65 Y103.439 E.06983
G1 X55.396 Y101.226 E.06983
G1 X55.285 Y99.002 E.06983
G1 X55.316 Y96.775 E.06983
G1 X55.49 Y94.555 E.06982
G1 X55.814 Y92.312 E.07105
G1 X56.263 Y90.17 E.06861
G1 X56.858 Y88.024 E.06983
G1 X57.59 Y85.921 E.06983
G1 X58.455 Y83.869 E.06983
G1 X59.45 Y81.876 E.06983
G1 X60.571 Y79.952 E.06983
G1 X61.813 Y78.103 E.06983
G1 X63.349 Y76.106 E.07901
G1 X63.338 Y45.244 E.96764
G1 X73.466 Y67.806 E.7754
G1 X76.191 Y66.521 E.09448
G1 X78.225 Y65.715 E.06858
G1 X80.305 Y65.038 E.06858
G1 X82.423 Y64.494 E.06858
G1 X84.572 Y64.084 E.06858
G1 X86.742 Y63.811 E.06858
G1 X88.925 Y63.674 E.06858
G1 X91.112 Y63.676 E.06858
G1 X93.295 Y63.815 E.06858
G1 X95.464 Y64.091 E.06858
G1 X97.612 Y64.503 E.06858
G1 X99.73 Y65.05 E.06858
G1 X101.809 Y65.729 E.06858
G1 X103.841 Y66.538 E.06858
G1 X106.565 Y67.825 E.09446
G1 X116.427 Y45.978 E.75157
G1 X116.416 Y75.834 E.93612
G1 X117.964 Y77.803 E.07854
G1 X119.215 Y79.623 E.06922
G1 X120.347 Y81.517 E.06922
G1 X121.358 Y83.481 E.06922
G1 X122.241 Y85.504 E.06922
G1 X122.994 Y87.579 E.06922
G1 X123.613 Y89.698 E.06922
G1 X124.097 Y91.852 E.06922
G1 X124.443 Y94.033 E.06922
G1 X124.649 Y96.231 E.06922
G1 X124.715 Y98.438 E.06922
G1 X124.641 Y100.644 E.06922
G1 X124.427 Y102.842 E.06922
G1 X124.074 Y105.021 E.06922
G1 X123.582 Y107.173 E.06922
G1 X122.955 Y109.29 E.06922
G1 X122.195 Y111.363 E.06922
G1 X121.305 Y113.383 E.06922
G1 X120.287 Y115.342 E.06922
G1 X119.148 Y117.233 E.06922
G1 X117.89 Y119.048 E.06922
G1 X116.52 Y120.779 E.06922
G1 X115.043 Y122.419 E.06922
G1 X113.464 Y123.963 E.06922
G1 X111.79 Y125.402 E.06922
G1 X110.028 Y126.733 E.06922
G1 X108.186 Y127.949 E.06922
